!!!OTL: O Jezu iakoś cieszko skathowany
**kern
*staff1
=1-
*clefC4
*k[b-]
1F
2F/
2F/
=2
1B-
2F/
1F
2G/
2A\
2B-\
=3
1A
1D
!!linebreak:original
=4
2r
2.d\
4d\
2d\
=5
2G/
2G/
1c
=6
1F
2c\
2d\
=7
1c
1F
=8
!!linebreak:original
1F
1c
=9
2A\
1B-
2G/
=10
1A
1A
=11
2r
2A\
2d\
2c\
=12
2.F/
4F/
2F/
2G/
=13
2A\
2B-\
1A
1D
!!linebreak:original
=14
2r
2D/
2G/
2F/
=15
2.B-\
4B-\
2B-\
2F/
=16
2G/
2G/
1A
=17
0D
==
*-
!!title: @{OTL}, @{GTL}, ed. @{ENC}
!!!pag:
!!!GTL: Hymnbook D
!!!EFL: 
!!!YEM: Creative Commons CC/BY/NC/SA 4.0
!!!ENC: Marcin Konik
!!!END: 2015-0m-dd
!!!EED: Marcin Konik
!!!EEV: 
!!!ONB: Encoded in vim by Marcin Konik
!!!CharacterEncoding: utf-8
!!!RDF**kern: l=long note in original notation
!!!RDF**kern: i=editorial accidental
!!muse2ps: z14jc180F
!!!COM: Anonim
!!!CDT: [?]
!!!TXO: Polish
!!!ODT: 
!!!GTL: Hymnbook D
!!!ARL: Opactwo św. Wojciecha, Staniątki 
!!!voices:	1
